X: 15
T: Woman Of The House, The
Z: Jeff Rowan
S: https://thesession.org/tunes/321#setting46283
R: reel
M: 4/4
L: 1/8
K: Gmaj
|:DBBA B2BA|GABd eBdB|(3AAA GB A2Bd|eB B2 gedB|
DBBA B2BA|GABd eBdB|GABG (3AAA GA|BGAG EGGE:|
|:f2fd edBd|edgd edBd|f2fd edBd|eaag a2 ag|
f2fd edBd|g2ge dcBA|GABG (3AAA GA|BGAG EGG2:|

